X: 655
T: Blind Mary
C:O'Carolan
B:O'Neill's 655
Z: 1997 by John Chambers <jc@trillian.mit.edu>
N:"Very slow"
N:collected by F.O'Neill.
M:2/4
L:1/8
K:D
A \
| d2 d>c | {c}B2 A(F/G/) | A>B AF | E3 (F/G/) \
| (Af) (f>e) | (dB) A(D/E/) | (F>G) ({F}E>D) | D3 ||
|| (d/e/) \
| f>g fB | e>c (AB/c/) | d>D D(E/F/) | E3 (A/G/) \
| (F>G) Ad | f>e d (D/E/) | (F>G) ({F}E>D) | D3 |]


